src/assets/duotone/BinanceCoin.svg

<svg width="24" height="24" viewBox="0 0 24 24"  xmlns="http://www.w3.org/2000/svg">
<path d="M11.6502 2.35026L6.3502 7.65026C6.1502 7.85026 6.1502 8.16026 6.3502 8.36026L7.6402 9.65026C7.8402 9.85026 8.1502 9.85026 8.3502 9.65026L11.6402 6.36026C11.8402 6.16026 12.1502 6.16026 12.3502 6.36026L15.6402 9.65026C15.8402 9.85026 16.1502 9.85026 16.3502 9.65026L17.6402 8.36026C17.8402 8.16026 17.8402 7.85026 17.6402 7.65026L12.3502 2.36026C12.1602 2.16026 11.8402 2.16026 11.6502 2.35026Z" />
<path d="M11.65 21.6509L6.35996 16.3609C6.15996 16.1609 6.15996 15.8509 6.35996 15.6509L7.64996 14.3609C7.84996 14.1609 8.15996 14.1609 8.35996 14.3609L11.65 17.6509C11.85 17.8509 12.16 17.8509 12.36 17.6509L15.65 14.3609C15.85 14.1609 16.16 14.1609 16.36 14.3609L17.65 15.6509C17.85 15.8509 17.85 16.1609 17.65 16.3609L12.36 21.6509C12.16 21.8409 11.84 21.8409 11.65 21.6509Z" />
<path opacity="0.4" d="M20.1002 10.1003L21.6402 11.6403C21.8402 11.8403 21.8402 12.1503 21.6402 12.3503L20.1002 13.9003C19.9002 14.1003 19.5902 14.1003 19.3902 13.9003L17.8502 12.3603C17.6502 12.1603 17.6502 11.8503 17.8502 11.6503L19.3902 10.1103C19.5902 9.91026 19.9102 9.91026 20.1002 10.1003Z" />
<path opacity="0.4" d="M4.6002 10.0995L6.1402 11.6395C6.3402 11.8395 6.3402 12.1495 6.1402 12.3495L4.6002 13.8995C4.4002 14.0995 4.0902 14.0995 3.8902 13.8995L2.3502 12.3595C2.1502 12.1595 2.1502 11.8495 2.3502 11.6495L3.9002 10.0995C4.0902 9.90953 4.4102 9.90953 4.6002 10.0995Z" />
<path opacity="0.4" d="M12.3502 9.88047L14.1202 11.6505C14.3202 11.8505 14.3202 12.1605 14.1202 12.3605L12.3502 14.1305C12.1502 14.3305 11.8402 14.3305 11.6402 14.1305L9.87021 12.3605C9.67021 12.1605 9.67021 11.8505 9.87021 11.6505L11.6402 9.88047C11.8402 9.68047 12.1602 9.68047 12.3502 9.88047Z" />
</svg>

<?xml version="1.0" encoding="UTF-8"?>
<svg width="24" height="24" viewBox="0 0 24 24" xmlns="http://www.w3.org/2000/svg">
 <path d="m11.65 2.3503-5.3 5.3c-0.2 0.2-0.2 0.51 0 0.71l1.29 1.29c0.2 0.2 0.51 0.2 0.71 0l3.29-3.29c0.2-0.2 0.51-0.2 0.71 0l3.29 3.29c0.2 0.2 0.51 0.2 0.71 0l1.29-1.29c0.2-0.2 0.2-0.51 0-0.71l-5.29-5.29c-0.19-0.2-0.51-0.2-0.7-0.01z"/>
 <path d="m11.65 21.651-5.29-5.29c-0.2-0.2-0.2-0.51 0-0.71l1.29-1.29c0.2-0.2 0.51-0.2 0.71 0l3.29 3.29c0.2 0.2 0.51 0.2 0.71 0l3.29-3.29c0.2-0.2 0.51-0.2 0.71 0l1.29 1.29c0.2 0.2 0.2 0.51 0 0.71l-5.29 5.29c-0.2 0.19-0.52 0.19-0.71 0z"/>
 <path d="m20.1 10.1 1.54 1.54c0.2 0.2 0.2 0.51 0 0.71l-1.54 1.55c-0.2 0.2-0.51 0.2-0.71 0l-1.54-1.54c-0.2-0.2-0.2-0.51 0-0.71l1.54-1.54c0.2-0.20004 0.52-0.20004 0.71-0.01z" opacity=".4"/>
 <path d="m4.6002 10.1 1.54 1.54c0.2 0.2 0.2 0.51 0 0.71l-1.54 1.55c-0.2 0.2-0.51 0.2-0.71 0l-1.54-1.54c-0.2-0.2-0.2-0.51 0-0.71l1.55-1.55c0.19-0.18997 0.51-0.18997 0.7 0z" opacity=".4"/>
 <path d="m12.35 9.8805 1.77 1.77c0.2 0.2 0.2 0.51 0 0.71l-1.77 1.77c-0.2 0.2-0.51 0.2-0.71 0l-1.77-1.77c-0.2-0.2-0.2-0.51 0-0.71l1.77-1.77c0.2-0.2 0.52-0.2 0.71 0z" opacity=".4"/>
</svg>
